X:1
T:Adagio in C major
T:Adagio in C major
T:TH 156
T:Pyotr Ilyich Tchaikovsky (1840-1893)
C:Pyotr Ilyich Tchaikovsky
%%score [ 1 2 3 4 ]
L:1/8
Q:1/4=71
M:3/2
K:C
V:1 treble transpose=-5 nm="Horn in G" snm="G Hn."
V:2 treble transpose=-9 nm="Horn in E♭" snm="E♭ Hn."
V:3 treble transpose=-8 nm="Horn in E" snm="E Hn."
V:4 treble transpose=-12 nm="Horn in C" snm="C Hn."
V:1
[K:C]!p!"^Adagio" c12- | c12 | z4 (C8 | G12) | z12 | z4 z4 C4 | (C12 | G,8) z4 | (c2 d2 e2 g2 d4 | %9
 c2) z2 z4 (_B4 | A2) z2 z4 (E4 | c4) _B4 z4 | z4 z4 (c2 C2- | C2 G,2 _A,4) G4 | z4 z4 (_B4 | %15
 c8) z4 | z4 z4 (G4 | c8) z4 |!f! c2 C2 C4 C4 |!p! A2 A2 A4 A,4 | A,12- | A,12 |] %22
V:2
[K:C]!p! E12- | E12 | z4 C4 c4 | e8- e2 e2 | c8- c2 B2 | _B12 | (=B12 | ^F8) z4 | z12 | z4 z4 e4- | %10
 e2 z2 z4 (e4 | C4) G,4 z4 | z4 e2 c2 B4 | (c2 d2 e2 g2 d4) | e2 c2 (g8 | c8) z4 | c2 A2 (e8 | %17
 c8) z4 | z12 |!p! _A2 A2 A4 A4 | _A12- | A12 |] %22
V:3
[K:C] z4!p! (C4 c4) | _B12 | (_e12 | G12) | z12 | z12 | z4 z4 (c4 | d8) z4 | z4 z4 (d4 | %9
 c2 d2 _e2 g2 _B4 | c2) z2 z4 _B4 | =B4 _B4 z4 | z4 z4 G4 | z4 B4 _B4 | z4 z4 (_B4 | =B8) z4 | %16
 z4 z4 G4 | z12 |!f! c2 c2 c4 C4 |!p! _e2 _E2 E4 E4 | _e12- | e12 |] %22
V:4
 z4!p! (c4 C4) | G,12 | z4 c4 C4 | G,12 | z12 | z4 z4 _B4 | (_B12 | d8) z4 | z4 z4 (d4 | %9
 e2) z2 z4 (B4 | c2 d2 e2 g2 G4) | _B4 B4 z4 | (C2 D2 _E2 G2 G,4) | _B4- B2 G2 B4 | z4 z4 (_B4 | %15
 _b4) z4 z4 | _e2 c2 (g4 G4 | c8) z4 |!f! c2 c2 c4 c4 | z12 | z12 | z12 |] %22

